X: 615
T: Your mother's fair pet
C: anon.
O: Ireland
B: Francis O'Neill: "The Dance Music of Ireland" (1907) no. 615
R: Reel
Z: Transcribed by Frank Nordberg - http://www.musicaviva.com
F: http://www.musicaviva.com/abc/tunes/ireland/oneill-1001/oneill-1001-061
5.abc
m: Tn = (3n/o/n/
M: C|
L: 1/8
K: D
(ed)|cAAB cded|cAGE TEDDB|cBAB cdeg|[1fdec dfed:|[2fdec d2||de|f2fa e2eg|


